rospo-light/16x16/actions/align-horizontal-left-out.svg

<svg height="16" viewBox="0 0 16 16" width="16" xmlns="http://www.w3.org/2000/svg"><path d="m4 1v14h2v-14zm4 1v5h7v-5zm-7 7v5h2v-5zm7 0v5h5v-5z" fill="#5c616c"/></svg>

<?xml version="1.0" encoding="UTF-8" standalone="no"?>
<svg xmlns="http://www.w3.org/2000/svg" width="22" height="22" viewBox="0 0 22 22">
 <defs>
  <style type="text/css" id="current-color-scheme">
   .ColorScheme-Text { color:#5c616c; } .ColorScheme-Highlight { color:#5294e2; }
  </style>
 </defs>
 <path style="fill:currentColor;opacity:1" class="ColorScheme-Text" transform="translate(3 3)" d="M 4 1 L 4 15 L 6 15 L 6 1 L 4 1 z M 8 2 L 8 7 L 15 7 L 15 2 L 8 2 z M 1 9 L 1 14 L 3 14 L 3 9 L 1 9 z M 8 9 L 8 14 L 13 14 L 13 9 L 8 9 z"/>
</svg>
